src/assets/driveway.svg

<svg width="66" height="66" viewBox="0 0 66 66" fill="none" xmlns="http://www.w3.org/2000/svg">
<circle cx="33" cy="33" r="33" fill="#EEEEEE"/>
<path d="M48.9954 47.2992L45.2453 16.5493C45.207 16.2357 44.9408 16 44.6248 16H21.3752C21.0593 16 20.7931 16.2357 20.7548 16.5493L17.0046 47.2992C16.9829 47.4769 17.0385 47.6552 17.157 47.7892C17.2757 47.9232 17.4461 47.9999 17.625 47.9999H48.375C48.5539 47.9999 48.7243 47.9232 48.8429 47.7892C48.9615 47.6553 49.0171 47.4769 48.9954 47.2992ZM33.2189 17.25V19.75H31.9689V17.25H33.2189ZM21.9287 17.25H23.2397L22.1078 29.141C22.0751 29.4846 22.3272 29.7897 22.6708 29.8223C22.6909 29.8242 22.7109 29.8252 22.7307 29.8252C23.0492 29.8252 23.3214 29.5828 23.3522 29.2593L24.4953 17.25H30.7189V20.375C30.7189 20.7201 30.9988 21 31.3439 21H33.8439C34.1891 21 34.4689 20.7201 34.4689 20.375V17.25H41.5049L44.3128 46.7499H21.6874L22.8192 34.859C22.8519 34.5154 22.5998 34.2103 22.2562 34.1776C21.9125 34.1456 21.6075 34.397 21.5748 34.7406L20.4317 46.7499H18.3309L21.9287 17.25ZM45.5684 46.7499L42.7605 17.25H44.0715L47.6691 46.7499H45.5684Z" fill="#2F2F2F"/>
<path d="M31.3445 32.25H33.8445C34.1896 32.25 34.4695 31.9701 34.4695 31.625V24.125C34.4695 23.7799 34.1896 23.5 33.8445 23.5H31.3445C30.9994 23.5 30.7195 23.7799 30.7195 24.125V31.625C30.7195 31.9702 30.9994 32.25 31.3445 32.25ZM31.9695 24.75H33.2195V31H31.9695V24.75Z" fill="#2F2F2F"/>
<path d="M31.3445 44.7504H33.8445C34.1896 44.7504 34.4695 44.4705 34.4695 44.1254V35.3754C34.4695 35.0302 34.1896 34.7504 33.8445 34.7504H31.3445C30.9994 34.7504 30.7195 35.0302 30.7195 35.3754V44.1254C30.7195 44.4706 30.9994 44.7504 31.3445 44.7504ZM31.9695 36.0004H33.2195V43.5004H31.9695V36.0004Z" fill="#2F2F2F"/>
<path d="M22.4636 32.625C22.8087 32.625 23.0886 32.3451 23.0886 32C23.0886 31.6549 22.8087 31.375 22.4636 31.375H22.4632C22.118 31.375 21.8384 31.6549 21.8384 32C21.8384 32.3451 22.1185 32.625 22.4636 32.625Z" fill="#2F2F2F"/>
</svg>

<svg width="66" height="66" fill="none" xmlns="http://www.w3.org/2000/svg"><circle cx="33" cy="33" r="33" fill="#EEE"/><path d="M49 47.3l-3.8-30.8c0-.3-.3-.5-.6-.5H21.4c-.3 0-.6.2-.6.5L17 47.3a.6.6 0 00.6.7h30.8a.6.6 0 00.6-.7zm-15.8-30v2.4H32v-2.4h1.2zm-11.3 0h1.3l-1 11.8a.6.6 0 101.2.2l1.1-12h6.2v3c0 .4.3.7.6.7h2.5c.4 0 .7-.3.7-.6v-3.1h7l2.8 29.4H21.7L22.8 35a.6.6 0 00-1.2-.2l-1.2 12h-2l3.5-29.5zm23.7 29.4l-2.8-29.5H44l3.6 29.5h-2.1z" fill="#2F2F2F"/><path d="M31.3 32.3h2.5c.4 0 .7-.3.7-.7v-7.5c0-.3-.3-.6-.7-.6h-2.5c-.3 0-.6.3-.6.6v7.5c0 .4.3.6.6.6zm.7-7.5h1.2V31H32v-6.3zM31.3 44.8h2.5c.4 0 .7-.3.7-.7v-8.7c0-.4-.3-.6-.7-.6h-2.5c-.3 0-.6.2-.6.6V44c0 .4.3.7.6.7zM32 36h1.2v7.5H32V36zM22.5 32.6a.6.6 0 000-1.2.6.6 0 100 1.2z" fill="#2F2F2F"/></svg>
